X: 21013
M: 6/8
L: 1/8
K: Bb
V: 1 name="6"
d2B BAB | c2G G2A | B2c d2e | f2g f2e |\
d2B BAB | c2G G2A | B2F d2c | c3 B2 H|]
f |\
g2B e2g | f2d b2f | g2B e2g | f2d b2f |\
gfe fed | edc dcB | cBA BAG | FAB cd"^D.C."e |]


